Origami/64x64/apps/puddletag.svg

<svg width="64" height="64" version="1" xmlns="http://www.w3.org/2000/svg">
 <path d="M 32,12 C 24.234,12 17.6198,16.6106 14.7734,23.136 7.544,24.178 2,30.154 2,37.454 2,45.488 8.7158,52 17,52 l 31.876,0 C 56.124,52 62,46.302 62,39.272 62,32.74 56.934,27.386 50.398,26.66 48.694,18.3194 41.1,12 32,12 Z" style="fill:#ec6295"/>
 <path d="m40 23.00194-12 1.999906v10.538505a4 3.999812 0 0 0 -2 -0.539975 4 3.999812 0 0 0 -4 3.999812 4 3.999812 0 0 0 4 3.999812 4 3.999812 0 0 0 4 -3.999812v-10.331514l8-1.335878v6.206709a4 3.999812 0 0 0 -2 -0.539975 4 3.999812 0 0 0 -4 3.999812 4 3.999812 0 0 0 4 3.999812 4 3.999812 0 0 0 4 -3.999812v-13.999342z" style="opacity:.2"/>
 <path d="m40 22.00194-12 1.999906v10.538505a4 3.999812 0 0 0 -2 -0.539975 4 3.999812 0 0 0 -4 3.999812 4 3.999812 0 0 0 4 3.999812 4 3.999812 0 0 0 4 -3.999812v-10.331514l8-1.335878v6.206709a4 3.999812 0 0 0 -2 -0.539975 4 3.999812 0 0 0 -4 3.999812 4 3.999812 0 0 0 4 3.999812 4 3.999812 0 0 0 4 -3.999812v-13.999342z" style="fill:#ffffff"/>
 <path d="M 2.0253906,37.929688 C 2.0162246,38.10412 2,38.275766 2,38.453125 2,46.485125 8.7158,53 17,53 l 31.876953,0 C 56.124953,53 62,47.301437 62,40.273438 62,40.099781 61.98367,39.929706 61.974609,39.757812 61.709852,46.559473 55.95627,52 48.876953,52 L 17,52 C 8.8815995,52 2.2868092,45.739428 2.0253906,37.929688 Z" style="opacity:.2"/>
 <path d="M 32 12 C 24.234 12 17.619837 16.612119 14.773438 23.136719 C 7.5440375 24.178719 2 30.153125 2 37.453125 C 2 37.611125 2.0152656 37.766125 2.0253906 37.921875 C 2.2888217 30.866791 7.7216393 25.15312 14.773438 24.136719 C 17.619838 17.612119 24.234 13 32 13 C 41.1 13 48.692484 19.319756 50.396484 27.660156 C 56.756938 28.366657 61.712314 33.461244 61.974609 39.753906 C 61.983924 39.594082 62 39.435467 62 39.273438 C 62 32.741437 56.932484 27.386156 50.396484 26.660156 C 48.692484 18.319756 41.1 12 32 12 z" style="fill:#ffffff;opacity:.2"/>
</svg>

<svg xmlns="http://www.w3.org/2000/svg" width="64" height="64" version="1">
 <path style="fill:#ec6295" d="M 32,12 C 24.234,12 17.6198,16.6106 14.7734,23.136 7.544,24.178 2,30.154 2,37.454 2,45.488 8.7158,52 17,52 l 31.876,0 C 56.124,52 62,46.302 62,39.272 62,32.74 56.934,27.386 50.398,26.66 48.694,18.3194 41.1,12 32,12 Z"/>
 <path style="opacity:0.2" d="m 40,23.00194 -12,1.999906 0,10.538505 A 4,3.999812 0 0 0 26,35.000376 4,3.999812 0 0 0 22,39.000188 4,3.999812 0 0 0 26,43 4,3.999812 0 0 0 30,39.000188 l 0,-10.331514 8,-1.335878 0,6.206709 a 4,3.999812 0 0 0 -2,-0.539975 4,3.999812 0 0 0 -4,3.999812 4,3.999812 0 0 0 4,3.999812 4,3.999812 0 0 0 4,-3.999812 L 40,23 Z"/>
 <path style="fill:#ffffff" d="m 40,22.00194 -12,1.999906 0,10.538505 A 4,3.999812 0 0 0 26,34.000376 4,3.999812 0 0 0 22,38.000188 4,3.999812 0 0 0 26,42 4,3.999812 0 0 0 30,38.000188 l 0,-10.331514 8,-1.335878 0,6.206709 a 4,3.999812 0 0 0 -2,-0.539975 4,3.999812 0 0 0 -4,3.999812 4,3.999812 0 0 0 4,3.999812 4,3.999812 0 0 0 4,-3.999812 L 40,22 Z"/>
 <path style="opacity:0.2" d="M 2.0253906,37.929688 C 2.0162246,38.10412 2,38.275766 2,38.453125 2,46.485125 8.7158,53 17,53 l 31.876953,0 C 56.124953,53 62,47.301437 62,40.273438 62,40.099781 61.98367,39.929706 61.974609,39.757812 61.709852,46.559473 55.95627,52 48.876953,52 L 17,52 C 8.8815995,52 2.2868092,45.739428 2.0253906,37.929688 Z"/>
 <path style="opacity:0.2;fill:#ffffff" d="M 32 12 C 24.234 12 17.619837 16.612119 14.773438 23.136719 C 7.5440375 24.178719 2 30.153125 2 37.453125 C 2 37.611125 2.0152656 37.766125 2.0253906 37.921875 C 2.2888217 30.866791 7.7216393 25.15312 14.773438 24.136719 C 17.619838 17.612119 24.234 13 32 13 C 41.1 13 48.692484 19.319756 50.396484 27.660156 C 56.756938 28.366657 61.712314 33.461244 61.974609 39.753906 C 61.983924 39.594082 62 39.435467 62 39.273438 C 62 32.741437 56.932484 27.386156 50.396484 26.660156 C 48.692484 18.319756 41.1 12 32 12 z"/>
</svg>
